Sources/FrostedUI/Resources/Icons.xcassets/listNumber24.imageset/list-number-24.svg

<svg width="24" height="24" viewBox="0 0 24 24" fill="none" xmlns="http://www.w3.org/2000/svg" data-fui-icon="true">
  <path
    d="M5.6084 13.5002C6.80331 13.5002 7.96172 14.3606 7.96191 15.6389C7.96184 16.3637 7.60117 16.9057 7.18457 17.2981C6.78462 17.6747 6.27373 17.9695 5.85059 18.2092C5.66547 18.3141 5.49731 18.4106 5.34473 18.5002H7.5C7.91421 18.5002 8.25 18.836 8.25 19.2502C8.24987 19.6643 7.91413 20.0002 7.5 20.0002H3.75C3.33587 20.0002 3.00013 19.6643 3 19.2502C3 18.5475 3.41746 18.0552 3.81348 17.7278C4.20162 17.407 4.70734 17.1334 5.11133 16.9045C5.55316 16.6542 5.90736 16.4397 6.15625 16.2053C6.38843 15.9866 6.46185 15.8136 6.46191 15.6389C6.46168 15.3832 6.18342 15.0002 5.6084 15.0002C5.35129 15.0004 5.08281 15.1028 4.85059 15.2385C4.73981 15.3033 4.64964 15.3687 4.58887 15.4163C4.55899 15.4396 4.53737 15.4587 4.52441 15.47C4.518 15.4755 4.51338 15.4792 4.51172 15.4807H4.51074C4.20917 15.7614 3.7371 15.7467 3.4541 15.4465C3.17015 15.1451 3.18409 14.67 3.48535 14.386L3.66504 14.5764C3.50776 14.4093 3.48858 14.3886 3.48633 14.386V14.385H3.4873L3.49316 14.3791C3.49633 14.3762 3.50031 14.3725 3.50488 14.3684C3.51422 14.3599 3.527 14.3492 3.54199 14.3362C3.57202 14.3102 3.61354 14.2749 3.66504 14.2346C3.76749 14.1545 3.91344 14.049 4.09375 13.9436C4.44445 13.7386 4.98071 13.5004 5.6084 13.5002ZM20.25 16.0002C20.6642 16.0002 21 16.336 21 16.7502C20.9999 17.1643 20.6641 17.5002 20.25 17.5002H11.75C11.3359 17.5002 11.0001 17.1643 11 16.7502C11 16.336 11.3358 16.0002 11.75 16.0002H20.25ZM5.82031 4.13598C6.04939 3.97573 6.3487 3.95609 6.59668 4.0852C6.84448 4.21442 7 4.47074 7 4.75024V9.75024C6.99987 10.1643 6.66413 10.5002 6.25 10.5002C5.83587 10.5002 5.50013 10.1643 5.5 9.75024V6.18969L4.17969 7.11449C3.84043 7.35173 3.37324 7.26902 3.13574 6.92992C2.8984 6.59064 2.98113 6.12349 3.32031 5.88598L5.82031 4.13598ZM20.25 6.50024C20.6642 6.50024 21 6.83602 21 7.25024C20.9999 7.66434 20.6641 8.00024 20.25 8.00024H11.75C11.3359 8.00024 11.0001 7.66434 11 7.25024C11 6.83602 11.3358 6.50024 11.75 6.50024H20.25Z"
    fill="currentColor"
  />
</svg>

<svg xmlns="http://www.w3.org/2000/svg" width="24" height="24" fill="none" data-fui-icon="true" viewBox="0 0 24 24"><path fill="currentColor" d="M5.608 13.5c1.195 0 2.354.86 2.354 2.139 0 .725-.36 1.267-.777 1.66-.4.376-.911.67-1.334.91q-.279.158-.506.291H7.5a.75.75 0 0 1 0 1.5H3.75a.75.75 0 0 1-.75-.75c0-.703.417-1.195.813-1.522.389-.321.894-.595 1.298-.824.442-.25.796-.464 1.045-.699.232-.218.306-.391.306-.566 0-.256-.279-.639-.854-.639-.257 0-.525.103-.757.239-.111.064-.201.13-.262.177l-.065.054q-.009.009-.012.01H4.51a.75.75 0 0 1-1.026-1.094l.18.19-.179-.19v-.001h.001l.006-.006.012-.01.037-.033q.046-.04.123-.101a4 4 0 0 1 .429-.291c.35-.205.887-.444 1.514-.444M20.25 16a.75.75 0 0 1 0 1.5h-8.5a.75.75 0 0 1 0-1.5zM5.82 4.136A.75.75 0 0 1 7 4.75v5a.75.75 0 0 1-1.5 0V6.19l-1.32.924a.75.75 0 0 1-.86-1.228zM20.25 6.5a.75.75 0 0 1 0 1.5h-8.5a.75.75 0 0 1 0-1.5z"/></svg>
